X:7888
T:Jenny Lind
% Nottingham Music Database
S:Lesley Dolman, via EF
M:4/4
L:1/4
K:D
P:A
A/2G/2|"D"FA "A7/e"GB|"D/f+"Af f/2e/2f|"Em"Ge "A7"e/2d/2e|"D"Fd "A7"dA/2G/2|
"D""Bm"FA "A7/e""A7/c+"GB|"D/f+""D"Af f/2e/2f|"G"ge "A7"e/2g/2f/2e/2|"D"df d:|
K:G
P:B
e/2f/2|"Em""C"g3/2f/2 "D7/f+""C"e/2g/2f/2e/2|"G"dB B/2A/2B|"Am"cA "D7"A/2G/2A|\
"G"BG Ge/2f/2|
"Em""C"g3/2f/2 "D7/f+""C"e/2g/2f/2e/2|"G"dB B/2A/2B|"D7"cA A/2c/2B/2A/2|\
"G"GB G:|
K:C
P:C
"C"G/2^F/2G cE|"G"GF/2E/2 F/2E/2F|"G"G/2^F/2G Bc|"C"dc/2B/2 c/2B/2c|
K:C
"C"G/2^F/2G cE|"G"GF/2E/2 F/2E/2F|"G"G/2^F/2G Bc|cc c:|
P:D
"F"af f/2g/2a/2f/2|"C"ge e/2f/2g/2e/2|"G"fd BG|"C"ce gz|
"F"af f/2g/2a/2f/2|"C"ge e/2f/2g/2e/2|"G"fd BG|cc c:|


